X: 2
T: Follow Her Over The Border
M: 9/8
L: 1/8
R: slip jig
K: Dmaj
|: ABA F2 D F2 d | ABA F2 A Bcd | 
ABA F2 D F2 A | EFE E2 F GAB :|
|: A2 d dcB A2 F | A2 d dcB A3 |
A2 d dcB A2 D | EFE E2 F G3 :|
